svg/editor/indent_increase_line.svg

<?xml version="1.0" encoding="UTF-8"?>
<svg width="24px" height="24px" viewBox="0 0 24 24" version="1.1" xmlns="http://www.w3.org/2000/svg" xmlns:xlink="http://www.w3.org/1999/xlink">
    <title>indent_increase_line</title>
    <g id="页面-1" stroke="none" stroke-width="1" fill="none" fill-rule="evenodd">
        <g id="Editor" transform="translate(-624.000000, 0.000000)" fill-rule="nonzero">
            <g id="indent_increase_line" transform="translate(624.000000, 0.000000)">
                 <path d="M24,0 L24,24 L0,24 L0,0 L24,0 Z M12.5934901,23.257841 L12.5819402,23.2595131 L12.5108777,23.2950439 L12.4918791,23.2987469 L12.4918791,23.2987469 L12.4767152,23.2950439 L12.4056548,23.2595131 C12.3958229,23.2563662 12.3870493,23.2590235 12.3821421,23.2649074 L12.3780323,23.275831 L12.360941,23.7031097 L12.3658947,23.7234994 L12.3769048,23.7357139 L12.4804777,23.8096931 L12.4953491,23.8136134 L12.4953491,23.8136134 L12.5071152,23.8096931 L12.6106902,23.7357139 L12.6232938,23.7196733 L12.6232938,23.7196733 L12.6266527,23.7031097 L12.609561,23.275831 C12.6075724,23.2657013 12.6010112,23.2592993 12.5934901,23.257841 L12.5934901,23.257841 Z M12.8583906,23.1452862 L12.8445485,23.1473072 L12.6598443,23.2396597 L12.6498822,23.2499052 L12.6498822,23.2499052 L12.6471943,23.2611114 L12.6650943,23.6906389 L12.6699349,23.7034178 L12.6699349,23.7034178 L12.678386,23.7104931 L12.8793402,23.8032389 C12.8914285,23.8068999 12.9022333,23.8029875 12.9078286,23.7952264 L12.9118235,23.7811639 L12.8776777,23.1665331 C12.8752882,23.1545897 12.8674102,23.1470016 12.8583906,23.1452862 L12.8583906,23.1452862 Z M12.1430473,23.1473072 C12.1332178,23.1423925 12.1221763,23.1452606 12.1156365,23.1525954 L12.1099173,23.1665331 L12.0757714,23.7811639 C12.0751323,23.7926639 12.0828099,23.8018602 12.0926481,23.8045676 L12.108256,23.8032389 L12.3092106,23.7104931 L12.3186497,23.7024347 L12.3186497,23.7024347 L12.3225043,23.6906389 L12.340401,23.2611114 L12.337245,23.2485176 L12.337245,23.2485176 L12.3277531,23.2396597 L12.1430473,23.1473072 Z" id="MingCute" fill-rule="nonzero"></path>
                <path d="M19.9999,18 C20.5522,18 20.9999,18.4477 20.9999,19 C20.9999,19.51285 20.613873,19.9355092 20.1165239,19.9932725 L19.9999,20 L3.99995,20 C3.44766,20 2.99995,19.5523 2.99995,19 C2.99995,18.48715 3.38598566,18.0644908 3.8833279,18.0067275 L3.99995,18 L19.9999,18 Z M20,13 C20.5522,13 21,13.4477 21,14 C21,14.5523 20.5522,15 20,15 L10.9999,15 C10.4477,15 9.99995,14.5523 9.99995,14 C9.99995,13.4477 10.4477,13 10.9999,13 L20,13 Z M3.64291,9.17279 L3.93306976,9.3244664 L3.93306976,9.3244664 L4.27735768,9.5128004 C4.3389624,9.5472706 4.402607,9.583288 4.46818375,9.6208625 L4.88396821,9.8650739 C4.95684264,9.9089164 5.03143376,9.9543358 5.10763384,10.001342 L5.58328,10.3025 L5.58328,10.3025 C5.839519,10.46894 6.0769723,10.629989 6.2942386,10.7823206 L6.70144,11.074375 C6.7646825,11.120785 6.8255782,11.16598 6.8840752,11.2098368 L7.2058576,11.4559336 L7.2058576,11.4559336 L7.46758,11.664 L7.46758,11.664 C7.68235,11.838 7.67292,12.1851 7.44711,12.3672 L7.1865932,12.5734136 L7.1865932,12.5734136 L6.8679796,12.8160928 L6.8679796,12.8160928 L6.4931604,13.0900152 C6.4261118,13.1379824 6.3568001,13.1870338 6.2852647,13.2370606 L5.8296831,13.5480558 L5.8296831,13.5480558 L5.58247,13.7107 C5.41354,13.82042 5.2508124,13.923244 5.09511256,14.0192992 L4.64992168,14.2872856 L4.64992168,14.2872856 L4.25184952,14.5154224 L4.25184952,14.5154224 L3.90584824,14.7044728 L3.90584824,14.7044728 L3.61687,14.8552 L3.61687,14.8552 C3.36343,14.9843 3.09127,14.8194 3.06485,14.5228 L3.02507622,14.0125805 L3.02507622,14.0125805 L2.98890109,13.362533 L2.98890109,13.362533 L2.97091882,12.8585782 L2.97091882,12.8585782 L2.96073881,12.3031163 L2.96073881,12.3031163 L2.96090553,11.6944042 L2.96090553,11.6944042 L2.97224331,11.10897 L2.97224331,11.10897 L2.99209125,10.5818188 L2.99209125,10.5818188 L3.01749879,10.1179975 L3.01749879,10.1179975 L3.05958,9.55205 L3.05958,9.55205 C3.0869,9.2354 3.38541,9.04127 3.64291,9.17279 Z M20,8 C20.5522,8 21,8.44772 21,9 C21,9.55228 20.5522,10 20,10 L10.9999,10 C10.4477,10 9.99995,9.55228 9.99995,9 C9.99995,8.44772 10.4477,8 10.9999,8 L20,8 Z M19.9999,3 C20.5522,3 20.9999,3.44772 20.9999,4 C20.9999,4.55228 20.5522,5 19.9999,5 L3.99995,5 C3.44766,5 2.99995,4.55228 2.99995,4 C2.99995,3.44772 3.44766,3 3.99995,3 L19.9999,3 Z" id="形状" fill="#09244B"></path>
            </g>
        </g>
    </g>
</svg>

<svg xmlns="http://www.w3.org/2000/svg" width="24" height="24"><g fill="none" fill-rule="nonzero"><path d="M24 0v24H0V0h24ZM12.593 23.258l-.011.002-.071.035-.02.004-.014-.004-.071-.035c-.01-.004-.019-.001-.024.005l-.004.01-.017.428.005.02.01.013.104.074.015.004.012-.004.104-.074.012-.016.004-.017-.017-.427c-.002-.01-.009-.017-.017-.018Zm.265-.113-.013.002-.185.093-.01.01-.003.011.018.43.005.012.008.007.201.093c.012.004.023 0 .029-.008l.004-.014-.034-.614c-.003-.012-.01-.02-.02-.022Zm-.715.002a.023.023 0 0 0-.027.006l-.006.014-.034.614c0 .012.007.02.017.024l.015-.002.201-.093.01-.008.004-.011.017-.43-.003-.012-.01-.01-.184-.092Z"/><path fill="#09244B" d="M20 18a1 1 0 0 1 .117 1.993L20 20H4a1 1 0 0 1-.117-1.993L4 18h16Zm0-5a1 1 0 0 1 0 2h-9a1 1 0 0 1 0-2h9ZM3.643 9.173l.29.151.344.189c.062.034.126.07.191.108l.416.244.224.136.475.302c.257.166.494.327.711.48l.407.291.183.136.322.246.262.208c.214.174.205.521-.02.703l-.261.206-.319.243-.375.274-.208.147-.455.311-.248.163c-.168.11-.331.212-.487.308l-.445.268-.398.228-.346.19-.29.15c-.253.13-.525-.036-.551-.332l-.04-.51-.036-.65-.018-.504-.01-.556v-.609l.011-.585.02-.527.025-.464.043-.566c.027-.317.325-.51.583-.38ZM20 8a1 1 0 0 1 0 2h-9a1 1 0 0 1 0-2h9Zm0-5a1 1 0 1 1 0 2H4a1 1 0 1 1 0-2h16Z"/></g></svg>
